T: Wise Maid, The
M: 4/4
L: 1/8
K: Dmaj
|:DE|~F3 G FEDE|FAAB AFED|d2 (3efg fdec|dBAF BE ~E2|!~F3 G FEDE|FAAB AFED|d2 (3efg fdec|dBAG FD:|!|:FA|d2 AG FDFA|dfaf gfeg|fAdf eAce|dfed cA~A2|!BDGB ADFA|dfaf gfed|(3Bcd ce dBAG|FAEA D2:|
